<?xml version="1.0" encoding="UTF-8"?>
<map version="1.10" tiledversion="1.12.2" orientation="orthogonal" renderorder="right-down" width="32" height="32" tilewidth="8" tileheight="8" infinite="0" backgroundcolor="#ffffff">
 <tileset firstgid="1" source="dining_room.tsx"/>
 <layer id="1" name="Terrain" width="32" height="32">
  <data encoding="csv">
18,18,18,18,18,18,18,18,18,18,18,18,18,18,18,18,18,19,18,18,18,18,18,18,18,18,18,18,18,18,18,18,
18,81,18,18,18,81,18,18,18,81,18,18,18,18,19,20,18,18,18,18,18,18,18,18,18,81,18,18,18,81,18,18,
18,18,18,18,18,18,18,18,18,18,18,19,18,18,18,18,18,18,18,18,18,18,18,18,18,18,18,18,18,18,18,18,
18,18,18,18,18,18,18,18,18,18,18,18,18,65,66,67,68,18,18,18,18,18,18,18,18,18,18,18,18,18,18,18,
18,81,18,33,34,35,36,18,45,46,18,18,18,69,70,71,72,18,25,49,18,18,18,18,41,42,18,18,18,81,18,18,
18,18,18,37,38,39,40,18,47,48,18,18,18,73,74,75,76,18,18,50,18,18,18,18,43,44,18,18,18,18,18,18,
18,18,18,18,18,18,18,18,18,18,18,18,18,18,18,18,19,18,18,18,18,20,18,18,18,18,18,18,18,18,18,18,
18,81,18,18,18,81,18,18,18,81,18,18,18,19,18,18,18,18,18,18,18,18,18,18,18,81,18,21,21,21,21,18,
18,18,18,18,18,18,18,18,18,18,19,18,18,18,18,18,18,18,18,18,18,18,18,18,18,18,18,21,21,21,21,18,
18,18,18,18,18,18,18,18,18,18,18,18,18,18,18,18,18,18,18,18,20,18,18,18,18,18,18,21,21,21,21,18,
18,81,18,18,18,81,18,18,18,81,18,18,20,18,18,18,18,18,18,18,18,19,18,18,18,81,18,18,18,81,18,18,
22,23,23,23,23,23,23,23,23,23,23,23,23,23,23,23,23,23,23,23,23,23,23,23,23,23,23,23,23,23,23,24,
18,18,18,18,18,18,18,18,18,18,18,18,18,18,18,19,18,18,18,20,18,18,18,18,18,18,18,18,18,18,18,18,
18,18,18,18,18,18,18,18,18,18,18,20,19,18,18,18,18,18,18,18,18,18,18,18,18,18,18,18,18,19,18,18,
18,18,18,20,18,18,18,18,18,19,18,18,18,18,18,18,18,18,18,18,18,18,18,18,18,18,19,18,18,18,18,18,
18,18,18,18,18,18,19,18,18,18,18,18,18,18,18,18,18,18,20,18,18,18,18,19,18,18,18,18,18,18,18,18,
18,18,18,19,18,18,18,18,18,18,20,18,18,18,18,18,18,18,18,18,19,18,18,18,18,18,18,18,18,18,18,18,
19,18,20,18,18,18,18,18,18,18,18,18,18,18,18,18,18,19,18,18,18,18,18,18,18,20,18,18,18,18,18,18,
18,18,18,18,18,18,18,18,18,18,18,18,18,18,19,18,18,20,18,18,18,18,18,18,18,18,18,18,18,18,18,19,
18,18,18,18,18,18,18,18,18,20,18,19,18,18,18,18,18,18,18,18,18,18,18,18,18,18,18,18,19,18,18,18,
18,4,12,12,12,12,12,10,18,18,18,18,18,18,18,18,18,18,18,18,18,18,18,18,20,19,18,18,18,18,18,18,
18,18,18,18,18,18,18,18,18,65,66,67,68,18,18,18,18,18,18,18,4,12,12,12,12,14,18,18,18,18,18,18,
18,33,34,35,36,81,45,46,18,69,70,71,72,81,49,18,41,42,18,18,18,18,18,18,18,7,18,18,18,18,18,20,
18,37,38,39,40,18,47,48,18,73,74,75,76,18,50,18,43,44,18,18,18,18,18,20,18,7,18,18,18,18,18,18,
18,18,60,61,61,62,18,18,18,51,51,51,51,18,18,18,18,18,18,18,18,18,18,18,18,7,18,18,26,27,19,18,
18,81,63,63,63,63,18,18,18,81,18,18,18,81,52,53,53,54,18,18,57,113,114,114,115,7,18,19,28,29,20,18,
18,18,64,64,64,64,18,18,18,18,18,18,18,18,55,18,18,56,18,58,59,116,116,116,116,7,18,18,30,31,18,18,
8,16,16,16,16,16,16,16,16,16,16,16,16,16,16,16,16,16,16,16,16,16,16,16,16,17,16,16,16,16,16,14,
9,17,17,17,17,17,17,17,17,17,17,17,17,17,17,17,17,17,17,17,17,17,17,17,17,17,17,17,17,17,17,15,
9,17,17,17,17,17,17,17,17,17,17,17,17,17,17,17,17,17,17,17,17,17,17,17,17,17,17,17,17,17,17,15,
9,17,17,17,17,17,17,17,17,17,17,17,17,17,17,17,17,17,17,17,17,17,17,17,17,17,17,17,17,17,17,15,
5,13,13,13,13,13,13,13,13,13,13,13,13,13,13,13,13,13,13,13,13,13,13,13,13,13,13,13,13,13,13,11
  </data>
 </layer>
</map>
