<?xml version="1.0" encoding="UTF-8"?>
<map version="1.10" tiledversion="1.12.2" orientation="orthogonal" renderorder="right-down" width="180" height="10" tilewidth="8" tileheight="8" infinite="0" backgroundcolor="#ffffff">
 <properties><property name="source" value="../data/room-templates/dining-room.json"/></properties>
 <tileset firstgid="1" source="dining_room.tsx"/>
 <layer id="1" name="Semantic Terrain" width="180" height="10">
  <data encoding="csv">
18,18,18,18,18,18,18,18,18,18,18,18,18,18,18,18,18,18,18,18,18,18,18,18,18,18,18,18,18,18,18,18,18,18,18,18,18,18,18,18,18,18,18,18,18,18,18,18,18,18,18,18,18,18,18,18,18,18,18,18,18,18,18,18,18,18,18,18,18,18,18,18,18,18,18,18,18,18,18,18,18,18,18,18,18,18,18,18,18,18,18,18,18,18,18,18,18,18,18,18,18,18,18,18,18,18,18,18,18,18,18,18,18,18,18,18,18,18,18,18,18,18,18,18,18,18,18,18,18,18,18,18,18,18,18,18,18,18,18,18,18,18,18,18,18,18,18,18,18,18,18,18,18,18,18,18,18,18,18,18,18,18,18,18,18,18,18,18,18,18,18,18,18,18,18,18,18,18,18,18,
18,8,12,12,12,12,12,12,12,12,14,18,18,8,12,12,12,12,12,12,12,12,14,18,18,8,12,12,12,12,12,12,12,12,14,18,18,8,12,12,10,18,18,18,4,12,14,18,18,8,12,12,10,18,18,18,4,12,14,18,18,8,12,12,10,18,18,18,4,12,14,18,18,8,12,12,10,18,18,18,4,12,14,18,18,8,12,12,12,12,12,12,12,12,14,18,18,8,12,12,12,12,12,12,12,12,14,18,18,8,12,12,12,12,12,12,12,12,14,18,18,8,12,12,12,12,12,12,12,12,14,18,18,8,12,12,10,18,18,18,4,12,14,18,18,8,12,12,10,18,18,18,4,12,14,18,18,8,12,12,10,18,18,18,4,12,14,18,18,8,12,12,10,18,18,18,4,12,14,18,
18,7,18,18,18,18,18,18,18,18,7,18,18,7,18,18,18,18,18,18,18,18,7,18,18,7,18,18,18,18,18,18,18,18,7,18,18,7,18,18,18,51,51,51,18,18,7,18,18,7,18,18,18,51,51,51,18,18,7,18,18,7,18,18,18,51,51,51,18,18,7,18,18,7,18,18,18,51,51,51,18,18,7,18,18,7,18,18,18,18,18,18,18,18,7,18,18,7,18,18,18,18,18,18,18,18,7,18,18,7,18,18,18,18,18,18,18,18,7,18,18,7,18,18,18,18,18,18,18,18,7,18,18,7,18,18,18,51,51,51,18,18,7,18,18,7,18,18,18,51,51,51,18,18,7,18,18,7,18,18,18,51,51,51,18,18,7,18,18,7,18,18,18,51,51,51,18,18,7,18,
18,7,18,18,18,18,18,18,18,18,7,18,18,7,18,18,18,18,18,18,18,18,7,18,18,7,18,18,18,18,18,18,18,18,7,18,18,7,18,18,18,18,18,18,18,18,7,18,18,7,18,18,18,18,18,18,18,18,7,18,18,7,18,18,18,18,18,18,18,18,7,18,18,7,18,18,18,18,18,18,18,18,7,18,18,7,18,18,18,18,18,18,18,18,7,18,18,7,18,18,18,18,18,18,18,18,7,18,18,7,18,18,18,18,18,18,18,18,7,18,18,7,18,18,18,18,18,18,18,18,7,18,18,7,18,18,18,18,18,18,18,18,7,18,18,7,18,18,18,18,18,18,18,18,7,18,18,7,18,18,18,18,18,18,18,18,7,18,18,7,18,18,18,18,18,18,18,18,7,18,
18,7,18,18,18,18,18,18,18,18,7,18,18,7,18,18,18,18,18,18,18,18,7,18,18,7,18,18,18,18,18,18,18,18,7,18,18,7,18,18,18,18,18,18,18,18,7,18,18,7,18,18,18,18,18,18,18,18,7,18,18,7,18,18,18,18,18,18,18,18,7,18,18,7,18,18,18,18,18,18,18,18,7,18,18,7,18,18,18,18,18,18,18,18,7,18,18,7,18,18,18,18,18,18,18,18,7,18,18,7,18,18,18,18,18,18,18,18,7,18,18,7,18,18,18,18,18,18,18,18,7,18,18,7,18,18,18,18,18,18,18,18,7,18,18,7,18,18,18,18,18,18,18,18,7,18,18,7,18,18,18,18,18,18,18,18,7,18,18,7,18,18,18,18,18,18,18,18,7,18,
18,3,18,18,18,18,51,51,51,18,7,18,18,7,18,18,18,18,51,51,51,18,3,18,18,3,18,18,18,18,18,18,18,18,3,18,18,7,18,18,18,18,51,51,51,18,7,18,18,3,18,18,18,18,51,51,51,18,7,18,18,7,18,51,51,51,18,18,18,18,3,18,18,3,18,18,18,18,51,51,51,18,3,18,18,7,18,18,18,18,51,51,51,18,7,18,18,3,18,18,18,18,51,51,51,18,7,18,18,7,18,18,18,18,51,51,51,18,3,18,18,3,18,18,18,18,51,51,51,18,3,18,18,7,51,51,51,18,18,18,18,18,7,18,18,3,18,18,18,18,51,51,51,18,7,18,18,7,18,18,18,18,51,51,51,18,3,18,18,3,18,18,18,18,51,51,51,18,3,18,
18,18,18,18,18,18,18,18,18,18,7,18,18,7,18,18,18,18,18,18,18,18,18,18,18,18,18,18,18,18,18,18,18,18,18,18,18,7,18,18,18,18,18,18,18,18,7,18,18,18,18,18,18,18,18,18,18,18,7,18,18,7,18,18,18,18,51,51,51,18,18,18,18,18,18,18,18,18,18,18,18,18,18,18,18,7,18,18,18,18,18,18,18,18,7,18,18,18,18,18,18,18,18,18,18,18,7,18,18,7,18,18,18,18,18,18,18,18,18,18,18,18,18,18,18,18,18,18,18,18,18,18,18,7,18,18,18,18,18,18,18,18,7,18,18,18,18,18,18,18,18,18,18,18,7,18,18,7,18,18,18,18,18,18,18,18,18,18,18,18,18,18,18,18,18,18,18,18,18,18,
18,18,18,18,18,18,51,51,51,18,7,18,18,7,18,18,18,18,51,51,51,18,18,18,18,18,18,18,18,18,18,18,18,18,18,18,18,7,18,18,18,18,51,51,51,18,7,18,18,18,18,18,18,18,51,51,51,18,7,18,18,7,18,18,18,18,18,18,18,18,18,18,18,18,18,18,18,18,51,51,51,18,18,18,18,7,18,18,18,18,51,51,51,18,7,18,18,18,18,18,18,18,51,51,51,18,7,18,18,7,18,18,18,18,51,51,51,18,18,18,18,18,18,18,18,18,51,51,51,18,18,18,18,7,18,18,18,51,51,51,18,18,7,18,18,18,18,18,18,18,51,51,51,18,7,18,18,7,18,18,18,18,51,51,51,18,18,18,18,18,18,18,18,18,51,51,51,18,18,18,
18,4,12,12,12,12,12,12,12,12,11,18,18,5,12,12,12,12,12,12,12,12,10,18,18,4,12,12,12,12,12,12,12,12,10,18,18,5,12,12,12,12,12,12,12,12,11,18,18,4,12,12,12,12,12,12,12,12,11,18,18,5,12,12,12,12,12,12,12,12,10,18,18,4,12,12,12,12,12,12,12,12,10,18,18,5,12,12,10,18,18,18,4,12,11,18,18,4,12,12,10,18,18,18,4,12,11,18,18,5,12,12,10,18,18,18,4,12,10,18,18,4,12,12,10,18,18,18,4,12,10,18,18,5,12,12,10,18,18,18,4,12,11,18,18,4,12,12,10,18,18,18,4,12,11,18,18,5,12,12,10,18,18,18,4,12,10,18,18,4,12,12,10,18,18,18,4,12,10,18,
18,18,18,18,18,18,18,18,18,18,18,18,18,18,18,18,18,18,18,18,18,18,18,18,18,18,18,18,18,18,18,18,18,18,18,18,18,18,18,18,18,18,18,18,18,18,18,18,18,18,18,18,18,18,18,18,18,18,18,18,18,18,18,18,18,18,18,18,18,18,18,18,18,18,18,18,18,18,18,18,18,18,18,18,18,18,18,18,18,18,18,18,18,18,18,18,18,18,18,18,18,18,18,18,18,18,18,18,18,18,18,18,18,18,18,18,18,18,18,18,18,18,18,18,18,18,18,18,18,18,18,18,18,18,18,18,18,18,18,18,18,18,18,18,18,18,18,18,18,18,18,18,18,18,18,18,18,18,18,18,18,18,18,18,18,18,18,18,18,18,18,18,18,18,18,18,18,18,18,18
  </data>
 </layer>
 <objectgroup id="2" name="Template Bounds">
  <object id="1" name="w_ordinary_0" type="room_template" x="8" y="8" width="80" height="64">
   <properties><property name="port_mask" type="int" value="1"/></properties>
  </object>
  <object id="2" name="e_ordinary_0" type="room_template" x="104" y="8" width="80" height="64">
   <properties><property name="port_mask" type="int" value="2"/></properties>
  </object>
  <object id="3" name="we_ordinary_0" type="room_template" x="200" y="8" width="80" height="64">
   <properties><property name="port_mask" type="int" value="3"/></properties>
  </object>
  <object id="4" name="n_ordinary_0" type="room_template" x="296" y="8" width="80" height="64">
   <properties><property name="port_mask" type="int" value="4"/></properties>
  </object>
  <object id="5" name="wn_ordinary_0" type="room_template" x="392" y="8" width="80" height="64">
   <properties><property name="port_mask" type="int" value="5"/></properties>
  </object>
  <object id="6" name="ne_ordinary_0" type="room_template" x="488" y="8" width="80" height="64">
   <properties><property name="port_mask" type="int" value="6"/></properties>
  </object>
  <object id="7" name="wen_ordinary_0" type="room_template" x="584" y="8" width="80" height="64">
   <properties><property name="port_mask" type="int" value="7"/></properties>
  </object>
  <object id="8" name="s_ordinary_0" type="room_template" x="680" y="8" width="80" height="64">
   <properties><property name="port_mask" type="int" value="8"/></properties>
  </object>
  <object id="9" name="ws_ordinary_0" type="room_template" x="776" y="8" width="80" height="64">
   <properties><property name="port_mask" type="int" value="9"/></properties>
  </object>
  <object id="10" name="es_ordinary_0" type="room_template" x="872" y="8" width="80" height="64">
   <properties><property name="port_mask" type="int" value="10"/></properties>
  </object>
  <object id="11" name="wes_ordinary_0" type="room_template" x="968" y="8" width="80" height="64">
   <properties><property name="port_mask" type="int" value="11"/></properties>
  </object>
  <object id="12" name="ns_ordinary_0" type="room_template" x="1064" y="8" width="80" height="64">
   <properties><property name="port_mask" type="int" value="12"/></properties>
  </object>
  <object id="13" name="wns_ordinary_0" type="room_template" x="1160" y="8" width="80" height="64">
   <properties><property name="port_mask" type="int" value="13"/></properties>
  </object>
  <object id="14" name="ens_ordinary_0" type="room_template" x="1256" y="8" width="80" height="64">
   <properties><property name="port_mask" type="int" value="14"/></properties>
  </object>
  <object id="15" name="wens_ordinary_0" type="room_template" x="1352" y="8" width="80" height="64">
   <properties><property name="port_mask" type="int" value="15"/></properties>
  </object>
 </objectgroup>
</map>
