<?xml version="1.0" encoding="UTF-8"?>
<map version="1.10" tiledversion="1.12.2" orientation="orthogonal" renderorder="right-down" width="40" height="32" tilewidth="8" tileheight="8" infinite="0" backgroundcolor="#ffffff">
 <properties><property name="source" value="../data/room-templates/dining-room-prototypes.json"/></properties>
 <tileset firstgid="1" source="dining_room.tsx"/>
 <layer id="1" name="Horizontal and Vertical Dominoes" width="40" height="32">
  <data encoding="csv">
8,12,12,12,12,12,12,12,12,12,12,12,12,12,12,12,12,12,12,12,12,12,12,12,12,12,12,12,12,12,12,12,12,12,12,12,12,12,12,14,
7,18,18,18,18,18,18,18,18,18,18,18,18,18,18,18,18,18,18,18,18,18,18,18,18,18,18,18,18,18,18,18,18,18,18,18,18,18,18,7,
7,18,18,18,18,18,18,18,18,18,18,18,18,18,18,18,18,18,18,18,18,18,18,18,18,18,18,18,18,18,18,18,18,18,18,18,18,18,18,7,
7,18,18,18,18,18,18,18,18,18,18,18,18,18,18,18,18,18,18,18,18,18,18,18,18,18,18,18,18,18,18,18,18,18,18,18,18,18,18,7,
7,18,18,18,18,18,18,18,18,18,18,18,18,18,18,18,18,18,18,18,18,18,18,18,18,18,18,18,18,18,18,18,18,18,18,18,18,18,18,7,
7,18,18,18,18,18,18,18,18,18,18,18,18,18,18,18,18,18,18,18,18,18,18,18,18,18,18,18,18,18,18,18,18,18,18,18,18,18,18,7,
7,18,18,18,18,18,18,18,18,18,18,18,18,18,18,18,18,18,18,18,18,18,18,18,18,18,18,18,18,18,18,18,18,18,18,18,18,18,18,7,
7,18,18,18,18,18,18,18,18,18,18,18,18,18,18,18,18,18,18,18,18,18,18,18,18,18,18,18,18,18,18,18,18,18,18,18,18,18,18,7,
7,18,18,18,18,18,18,18,18,18,18,18,18,18,18,18,18,18,18,18,8,12,12,12,12,12,12,12,12,14,18,18,18,18,18,18,18,18,18,7,
7,18,18,18,18,18,18,18,18,18,18,18,18,18,18,18,18,18,18,18,7,18,18,18,18,18,18,18,18,7,18,18,18,18,18,18,18,18,18,7,
7,18,18,18,18,18,18,18,18,18,18,18,18,18,18,18,18,18,18,18,7,18,18,18,18,18,18,18,18,7,18,18,18,18,18,18,18,18,18,7,
7,18,18,18,18,18,18,18,18,18,18,18,18,18,18,18,18,18,18,18,7,18,18,18,18,18,18,18,18,7,18,18,18,18,18,18,18,18,18,7,
7,18,18,18,18,18,18,18,18,18,18,18,18,18,18,18,18,18,18,18,9,12,12,10,18,18,18,18,18,7,18,18,18,18,18,18,18,18,18,7,
7,18,18,18,18,18,18,18,18,18,18,18,18,18,18,18,18,18,18,18,7,18,18,18,18,18,18,18,18,7,18,18,18,18,18,18,18,18,18,7,
7,18,18,18,18,18,18,18,18,18,18,18,18,18,18,18,18,18,18,18,7,18,18,18,18,18,4,12,12,15,18,18,18,18,18,18,18,18,18,7,
7,18,18,18,18,18,18,18,18,18,18,18,18,18,18,18,18,18,18,18,7,18,18,18,18,18,18,18,18,7,18,18,18,18,18,18,18,18,18,7,
9,12,12,12,12,12,12,12,12,12,12,12,12,12,12,12,12,12,12,16,15,18,18,18,18,18,18,18,18,7,18,18,18,18,18,18,18,18,18,7,
7,18,18,18,18,18,18,18,18,18,18,18,18,18,18,18,18,18,18,9,17,12,12,10,18,18,18,18,18,7,18,18,18,18,18,18,18,18,18,7,
7,18,18,18,18,18,18,18,18,18,18,18,18,18,18,18,18,18,18,9,15,18,18,18,18,18,18,18,18,7,18,18,18,18,18,18,18,18,18,7,
7,18,18,18,18,18,18,18,18,18,18,18,18,18,18,18,18,18,18,9,15,18,18,18,18,18,4,12,12,15,18,18,18,18,18,18,18,18,18,7,
7,18,18,18,18,18,18,18,18,18,18,18,18,18,18,18,18,18,18,5,11,18,18,18,18,18,18,18,18,7,18,18,18,18,18,18,18,18,18,7,
7,18,18,18,18,18,18,18,18,18,18,18,18,18,18,18,18,18,18,18,18,18,18,18,18,18,18,18,18,7,18,18,18,18,18,18,18,18,18,7,
7,18,18,18,18,18,18,18,18,18,18,18,18,18,18,18,18,18,18,18,18,18,18,18,18,18,18,18,18,7,18,18,18,18,18,18,18,18,18,7,
9,12,12,12,12,12,12,12,12,12,12,12,12,12,12,12,12,12,12,12,12,12,12,12,12,12,12,12,12,11,18,18,18,18,18,18,18,18,18,7,
7,18,18,18,18,18,18,18,18,18,18,18,18,18,18,18,18,18,18,18,18,18,18,18,18,18,18,18,18,18,18,18,18,18,18,18,18,18,18,7,
7,18,18,18,18,18,18,18,18,18,18,18,18,18,18,18,18,18,18,18,18,18,18,18,18,18,18,18,18,18,18,18,18,18,18,18,18,18,18,7,
7,18,18,18,18,18,18,18,18,18,18,18,18,18,18,18,18,18,18,18,18,18,18,18,18,18,18,18,18,18,18,18,18,18,18,18,18,18,18,7,
7,18,18,18,18,18,18,18,18,18,18,18,18,18,18,18,18,18,18,18,18,18,18,18,18,18,18,18,18,18,18,18,18,18,18,18,18,18,18,7,
7,18,18,18,18,18,18,18,18,18,18,18,18,18,18,18,18,18,18,18,18,18,18,18,18,18,18,18,18,18,18,18,18,18,18,18,18,18,18,7,
7,18,18,18,18,18,18,18,18,18,18,18,18,18,18,18,18,18,18,18,18,18,18,18,18,18,18,18,18,18,18,18,18,18,18,18,18,18,18,7,
7,18,18,18,18,18,18,18,18,18,18,18,18,18,18,18,18,18,18,18,18,18,18,18,18,18,18,18,18,18,18,18,18,18,18,18,18,18,18,7,
5,12,12,12,12,12,12,12,12,12,12,12,12,12,12,12,12,12,12,12,12,12,12,12,12,12,12,12,12,12,12,12,12,12,12,12,12,12,12,11
  </data>
 </layer>
 <objectgroup id="2" name="Playtest Metadata">
  <object id="1" name="e_wide_ordinary_0" type="room_template" x="0" y="128" width="80" height="64">
   <properties><property name="traversal_class" value="ordinary"/><property name="seams" value='{"east":"wide"}'/></properties>
  </object>
  <object id="2" name="we_wide_ordinary_0" type="room_template" x="80" y="128" width="80" height="64">
   <properties><property name="traversal_class" value="ordinary"/><property name="seams" value='{"west":"wide","east":"standard"}'/></properties>
  </object>
  <object id="3" name="s_wide_ordinary_0" type="room_template" x="160" y="64" width="80" height="64">
   <properties><property name="traversal_class" value="ordinary"/><property name="seams" value='{"south":"wide"}'/></properties>
  </object>
  <object id="4" name="wn_wide_ledge_0" type="room_template" x="160" y="128" width="80" height="64">
   <properties><property name="traversal_class" value="ledge_catch"/><property name="seams" value='{"west":"standard","north":"wide"}'/></properties>
  </object>
  <object id="5" name="chef_spawn" type="spawn" x="20" y="184"><point/></object>
  <object id="6" name="ledge_edge" type="ledge_catch" x="208" y="152"><point/></object>
  <object id="7" name="vertical_open_seam" type="wide_seam" x="168" y="120" width="64" height="16"/>
 </objectgroup>
</map>
